X:1
T:Killavil Fancy, The
R:reel
M:4/4
L:1/8
K:G
~B3G A2BA|GE~E2 cEGE|DGBG A2BA|GEED EFGA|
~B3d A2BA|GE~E2 cEGE|DGBG A2BA|GEED ~E3D|]
GABd edge|dB~B2 dBAB|GABd edge|dBAG EDB,D|
GABd edge|dB~B2 dega|(3bag ag egde|gedB AGEG|]
</abc>
